X: 1
T:Paso Ledo
M:2/4
L:1/8
Q:250
C:Xan Tilve (gaiteiro de Campañó)
R:Pasodoble
A:Galicia
N:Repertorio básic
K:C
{B,}C2D2 | EG EC | DF DB, | CD E2 | C2 D2 | EG EC | DF DB, |1 C4  :|2  C
3 E/
2G/2 |
: cG EC | cG EC | cG EC | D3 E| FD B,D | FD B,D | GF ED |1 E2 C E/2G/2 :
|2  C4
 ||

